X: 1
T: Mary Murray's Mazurka
C: Paul Gitlitz 1999
R: mazurka
Z: 2020 John Chambers <jc:trillian.mit.edu>
S: https://www.facebook.com/groups/Fiddletuneoftheday/ 2020-11-01
S: https://www.facebook.com/groups/Fiddletuneoftheday/photos/
S: www.traditionalmusic.co.uk
M: 3/4
L: 1/8
K: A
AF \
| "A"(EF) AB c2 | "F#m"(cd) (Bc) A2 | "Bm"Bc (de) f2 | "D"dc da "E"g2 |\
| "A"(EF) AB c2 | "F#m"(cd) (Bc) Aa | "E7"(gf) ed Bc | "A"A4 :|
|: ag \
| "D"f2 g2 a2 | "A"e4 dc | "Bm"dc df ed | "C#m"c6 |\
| "D"dc Bc d2 | "A"cB AB c2 |1 "Bm"BA Bc dB | "E"[B4G4] :|2 "E"EG Bd cB | "A"A4 :|
